images/wwd-management.svg

<svg width="66" height="67" viewBox="0 0 66 67" fill="none" xmlns="http://www.w3.org/2000/svg">
<path fill-rule="evenodd" clip-rule="evenodd" d="M65.9957 34.1413L64.9958 34.1245C64.9986 33.9584 65 33.7919 65 33.625C65 33.4582 64.9986 33.2917 64.9958 33.1255L65.9957 33.1088C65.9986 33.2805 66 33.4526 66 33.625C66 33.7975 65.9986 33.9695 65.9957 34.1413ZM65.865 30.7481L64.8694 30.842C64.8381 30.5106 64.8013 30.1808 64.7591 29.8527L65.7509 29.7251C65.7946 30.0644 65.8326 30.4054 65.865 30.7481ZM65.3576 27.394L64.3788 27.599C64.3107 27.2736 64.2371 26.9502 64.1583 26.6289L65.1295 26.3906C65.211 26.7229 65.2871 27.0574 65.3576 27.394ZM64.4757 24.1174L63.5263 24.4315C63.4221 24.1165 63.3126 23.8038 63.1981 23.4936L64.1362 23.1472C64.2547 23.4681 64.3679 23.7915 64.4757 24.1174ZM57.5005 12.6018L56.7816 13.2968C56.5511 13.0584 56.3166 12.8239 56.0782 12.5934L56.7733 11.8745C57.0198 12.1128 57.2622 12.3553 57.5005 12.6018ZM55.0101 10.2978L54.373 11.0686C54.1176 10.8574 53.8585 10.6505 53.5958 10.448L54.2065 9.65607C54.4781 9.8655 54.746 10.0794 55.0101 10.2978ZM52.2787 8.28584L51.7316 9.12289C51.4542 8.94157 51.1735 8.76484 50.8897 8.5928L51.4081 7.73764C51.7016 7.91556 51.9918 8.09833 52.2787 8.28584ZM49.3394 6.59193L48.8895 7.48504C48.5938 7.3361 48.2953 7.19204 47.994 7.05296L48.4131 6.14501C48.7247 6.28887 49.0335 6.43788 49.3394 6.59193ZM46.2278 5.23883L45.8814 6.17693C45.5712 6.06239 45.2586 5.95297 44.9435 5.84876L45.2576 4.89935C45.5835 5.00716 45.9069 5.12035 46.2278 5.23883ZM26.2424 4.89935L26.5565 5.84876C26.2414 5.95297 25.9288 6.06239 25.6186 6.17692L25.2722 5.23883C25.5931 5.12035 25.9165 5.00716 26.2424 4.89935ZM23.087 6.14501L23.506 7.05295C23.2047 7.19204 22.9062 7.3361 22.6105 7.48503L22.1606 6.59193C22.4665 6.43788 22.7753 6.28887 23.087 6.14501ZM20.0919 7.73764L20.6103 8.5928C20.3265 8.76484 20.0458 8.94157 19.7684 9.12289L19.2213 8.28584C19.5082 8.09833 19.7984 7.91556 20.0919 7.73764ZM17.2935 9.65607L17.9042 10.448C17.6415 10.6505 17.3824 10.8574 17.127 11.0686L16.4899 10.2978C16.754 10.0794 17.0219 9.8655 17.2935 9.65607ZM14.7267 11.8745L15.4218 12.5934C15.1834 12.8239 14.9489 13.0584 14.7184 13.2968L13.9995 12.6018C14.2378 12.3553 14.4802 12.1128 14.7267 11.8745ZM6.37055 26.3906L7.34173 26.6289C7.26288 26.9502 7.18934 27.2736 7.12121 27.599L6.14243 27.394C6.21291 27.0574 6.28898 26.7229 6.37055 26.3906ZM5.74908 29.7251L6.74089 29.8527C6.69867 30.1808 6.66187 30.5106 6.6306 30.842L5.63502 30.7481C5.66736 30.4054 5.70541 30.0644 5.74908 29.7251ZM5.50432 33.1088C5.50144 33.2805 5.5 33.4526 5.5 33.625C5.5 33.7974 5.50144 33.9695 5.50432 34.1413L6.50418 34.1245C6.5014 33.9584 6.5 33.7919 6.5 33.625C6.5 33.4582 6.5014 33.2917 6.50418 33.1255L5.50432 33.1088ZM5.63502 36.5019L6.6306 36.408C6.66187 36.7394 6.69867 37.0692 6.74089 37.3973L5.74908 37.525C5.70541 37.1857 5.66736 36.8446 5.63502 36.5019ZM16.4899 56.9523L17.127 56.1815C17.3824 56.3927 17.6415 56.5996 17.9042 56.8021L17.2935 57.594C17.0219 57.3845 16.754 57.1706 16.4899 56.9523ZM19.2213 58.9642C19.5082 59.1517 19.7984 59.3345 20.0919 59.5124L20.6103 58.6573C20.3265 58.4852 20.0458 58.3085 19.7684 58.1272L19.2213 58.9642ZM22.1606 60.6581L22.6105 59.765C22.9061 59.914 23.2047 60.058 23.506 60.1971L23.0869 61.105C22.7753 60.9612 22.4665 60.8122 22.1606 60.6581ZM25.2722 62.0112L25.6186 61.0731C25.9288 61.1877 26.2414 61.2971 26.5565 61.4013L26.2424 62.3507C25.9165 62.2429 25.5931 62.1297 25.2722 62.0112ZM45.2576 62.3507L44.9435 61.4013C45.2586 61.2971 45.5712 61.1877 45.8814 61.0731L46.2278 62.0112C45.9069 62.1297 45.5835 62.2429 45.2576 62.3507ZM48.4131 61.105L47.994 60.1971C48.2953 60.058 48.5938 59.914 48.8895 59.765L49.3394 60.6581C49.0335 60.8122 48.7247 60.9612 48.4131 61.105ZM51.4081 59.5124L50.8897 58.6573C51.1735 58.4852 51.4542 58.3085 51.7316 58.1272L52.2787 58.9642C51.9919 59.1517 51.7016 59.3345 51.4081 59.5124ZM54.2065 57.594L53.5958 56.8021C53.8585 56.5996 54.1176 56.3927 54.373 56.1815L55.0101 56.9523C54.746 57.1706 54.4781 57.3845 54.2065 57.594ZM56.7733 55.3756L56.0782 54.6566C56.3166 54.4261 56.5511 54.1916 56.7816 53.9532L57.5005 54.6483C57.2622 54.8948 57.0198 55.1373 56.7733 55.3756ZM65.1295 40.8595C65.211 40.5271 65.2871 40.1926 65.3576 39.856L64.3788 39.6511C64.3107 39.9765 64.2371 40.2999 64.1583 40.6212L65.1295 40.8595ZM65.7509 37.525L64.7591 37.3973C64.8013 37.0693 64.8381 36.7395 64.8694 36.408L65.865 36.5019C65.8326 36.8447 65.7946 37.1857 65.7509 37.525Z" fill="white"/>
<path d="M38.3526 63.6787C38.3526 62.2413 37.1874 61.0761 35.75 61.0761C34.3127 61.0761 33.1475 62.2413 33.1475 63.6787C33.1475 65.116 34.3127 66.2812 35.75 66.2812C37.1874 66.2812 38.3526 65.116 38.3526 63.6787Z" fill="white" fill-opacity="0.7"/>
<path d="M37.0513 1.86748C35.8065 1.1488 34.2148 1.5753 33.4961 2.82009C32.7774 4.06489 33.2039 5.6566 34.4487 6.37528C35.6935 7.09397 37.2852 6.66747 38.0039 5.42267C38.7226 4.17788 38.2961 2.58616 37.0513 1.86748Z" fill="#7ACC00"/>
<path d="M10.8496 50.8051C12.0944 50.0865 12.5209 48.4947 11.8023 47.25C11.0836 46.0052 9.49186 45.5787 8.24707 46.2973C7.00227 47.016 6.57577 48.6077 7.29445 49.8525C8.01314 51.0973 9.60485 51.5238 10.8496 50.8051Z" fill="#7ACC00"/>
<path d="M12.4505 53.5777C15.2265 51.9749 16.1777 48.4252 14.5749 45.6492C12.9722 42.8732 9.4225 41.922 6.64647 43.5248C3.87044 45.1275 2.9193 48.6772 4.52204 51.4532C6.12478 54.2293 9.67448 55.1804 12.4505 53.5777Z" stroke="#7ACC00"/>
<path d="M63.6041 18.2726C63.6041 16.8352 62.4389 15.67 61.0015 15.67C59.5641 15.67 58.3989 16.8352 58.3989 18.2726C58.3989 19.71 59.5641 20.8752 61.0015 20.8752C62.4389 20.8752 63.6041 19.71 63.6041 18.2726Z" fill="white" fill-opacity="0.7"/>
<path d="M8.42134 21.6772C9.66613 22.3959 11.2578 21.9694 11.9765 20.7246C12.6952 19.4798 12.2687 17.8881 11.0239 17.1694C9.77913 16.4507 8.18741 16.8772 7.46873 18.122C6.75005 19.3668 7.17654 20.9585 8.42134 21.6772Z" fill="white" fill-opacity="0.7"/>
<path d="M62.6021 51.4558C63.8469 50.7371 64.2734 49.1454 63.5547 47.9006C62.836 46.6558 61.2443 46.2293 59.9995 46.948C58.7547 47.6667 58.3282 49.2584 59.0469 50.5032C59.7656 51.748 61.3573 52.1745 62.6021 51.4558Z" fill="white"/>
<circle cx="35.8749" cy="33.25" r="17.7396" stroke="white" stroke-opacity="0.7" stroke-dasharray="1 2.3"/>
<path d="M35.875 22.7344C37.3269 22.7344 38.5039 23.9114 38.5039 25.3633C38.5039 26.8152 37.3269 27.9923 35.875 27.9923C34.4231 27.9923 33.2461 26.8152 33.2461 25.3633C33.2461 23.9114 34.4231 22.7344 35.875 22.7344ZM37.8467 28.6495H37.3801C36.4472 29.0785 35.3431 29.097 34.37 28.6495H33.9033C32.8144 28.6495 31.9316 29.5322 31.9316 30.6212V36.2076C31.9316 36.7521 32.373 37.1935 32.9175 37.1935H33.5747V42.7799C33.5747 43.3244 34.0161 43.7657 34.5606 43.7657H37.1895C37.7339 43.7657 38.1753 43.3244 38.1753 42.7799V37.1935H38.8325C39.377 37.1935 39.8184 36.7521 39.8184 36.2076V30.6212C39.8184 29.5322 38.9356 28.6495 37.8467 28.6495Z" fill="white"/>
</svg>

<?xml version="1.0" encoding="utf-8"?>
<!-- Generator: Adobe Illustrator 23.0.1, SVG Export Plug-In . SVG Version: 6.00 Build 0)  -->
<svg version="1.1" id="Layer_1" xmlns="http://www.w3.org/2000/svg" xmlns:xlink="http://www.w3.org/1999/xlink" x="0px" y="0px"
	 viewBox="0 0 66 67" style="enable-background:new 0 0 66 67;" xml:space="preserve">
<style type="text/css">
	.st0{fill-rule:evenodd;clip-rule:evenodd;fill:#FFFFFF;}
	.st1{fill:#FFFFFF;fill-opacity:0.7;}
	.st2{fill:#93CB40;}
	.st3{fill:none;stroke:#93CB40;}
	.st4{fill:#FFFFFF;}
	.st5{fill:none;stroke:#FFFFFF;stroke-opacity:0.7;stroke-dasharray:1,2.3;}
</style>
<path class="st0" d="M66,34.1l-1,0c0-0.2,0-0.3,0-0.5c0-0.2,0-0.3,0-0.5l1,0c0,0.2,0,0.3,0,0.5C66,33.8,66,34,66,34.1z M65.9,30.7
	l-1,0.1c0-0.3-0.1-0.7-0.1-1l1-0.1C65.8,30.1,65.8,30.4,65.9,30.7z M65.4,27.4l-1,0.2c-0.1-0.3-0.1-0.6-0.2-1l1-0.2
	C65.2,26.7,65.3,27.1,65.4,27.4z M64.5,24.1l-0.9,0.3c-0.1-0.3-0.2-0.6-0.3-0.9l0.9-0.3C64.3,23.5,64.4,23.8,64.5,24.1z M57.5,12.6
	l-0.7,0.7c-0.2-0.2-0.5-0.5-0.7-0.7l0.7-0.7C57,12.1,57.3,12.4,57.5,12.6z M55,10.3l-0.6,0.8c-0.3-0.2-0.5-0.4-0.8-0.6l0.6-0.8
	C54.5,9.9,54.7,10.1,55,10.3z M52.3,8.3l-0.5,0.8c-0.3-0.2-0.6-0.4-0.8-0.5l0.5-0.9C51.7,7.9,52,8.1,52.3,8.3z M49.3,6.6l-0.4,0.9
	c-0.3-0.1-0.6-0.3-0.9-0.4l0.4-0.9C48.7,6.3,49,6.4,49.3,6.6z M46.2,5.2l-0.3,0.9c-0.3-0.1-0.6-0.2-0.9-0.3l0.3-0.9
	C45.6,5,45.9,5.1,46.2,5.2z M26.2,4.9l0.3,0.9c-0.3,0.1-0.6,0.2-0.9,0.3l-0.3-0.9C25.6,5.1,25.9,5,26.2,4.9z M23.1,6.1l0.4,0.9
	c-0.3,0.1-0.6,0.3-0.9,0.4l-0.4-0.9C22.5,6.4,22.8,6.3,23.1,6.1z M20.1,7.7l0.5,0.9c-0.3,0.2-0.6,0.3-0.8,0.5l-0.5-0.8
	C19.5,8.1,19.8,7.9,20.1,7.7z M17.3,9.7l0.6,0.8c-0.3,0.2-0.5,0.4-0.8,0.6l-0.6-0.8C16.8,10.1,17,9.9,17.3,9.7z M14.7,11.9l0.7,0.7
	c-0.2,0.2-0.5,0.5-0.7,0.7L14,12.6C14.2,12.4,14.5,12.1,14.7,11.9z M6.4,26.4l1,0.2c-0.1,0.3-0.2,0.6-0.2,1l-1-0.2
	C6.2,27.1,6.3,26.7,6.4,26.4z M5.7,29.7l1,0.1c0,0.3-0.1,0.7-0.1,1l-1-0.1C5.7,30.4,5.7,30.1,5.7,29.7z M5.5,33.1c0,0.2,0,0.3,0,0.5
	s0,0.3,0,0.5l1,0c0-0.2,0-0.3,0-0.5c0-0.2,0-0.3,0-0.5L5.5,33.1z M5.6,36.5l1-0.1c0,0.3,0.1,0.7,0.1,1l-1,0.1
	C5.7,37.2,5.7,36.8,5.6,36.5z M16.5,57l0.6-0.8c0.3,0.2,0.5,0.4,0.8,0.6l-0.6,0.8C17,57.4,16.8,57.2,16.5,57z M19.2,59
	c0.3,0.2,0.6,0.4,0.9,0.5l0.5-0.9c-0.3-0.2-0.6-0.3-0.8-0.5L19.2,59z M22.2,60.7l0.4-0.9c0.3,0.1,0.6,0.3,0.9,0.4l-0.4,0.9
	C22.8,61,22.5,60.8,22.2,60.7z M25.3,62l0.3-0.9c0.3,0.1,0.6,0.2,0.9,0.3l-0.3,0.9C25.9,62.2,25.6,62.1,25.3,62z M45.3,62.4
	l-0.3-0.9c0.3-0.1,0.6-0.2,0.9-0.3l0.3,0.9C45.9,62.1,45.6,62.2,45.3,62.4z M48.4,61.1L48,60.2c0.3-0.1,0.6-0.3,0.9-0.4l0.4,0.9
	C49,60.8,48.7,61,48.4,61.1z M51.4,59.5l-0.5-0.9c0.3-0.2,0.6-0.3,0.8-0.5l0.5,0.8C52,59.2,51.7,59.3,51.4,59.5z M54.2,57.6
	l-0.6-0.8c0.3-0.2,0.5-0.4,0.8-0.6L55,57C54.7,57.2,54.5,57.4,54.2,57.6z M56.8,55.4l-0.7-0.7c0.2-0.2,0.5-0.5,0.7-0.7l0.7,0.7
	C57.3,54.9,57,55.1,56.8,55.4z M65.1,40.9c0.1-0.3,0.2-0.7,0.2-1l-1-0.2c-0.1,0.3-0.1,0.6-0.2,1L65.1,40.9z M65.8,37.5l-1-0.1
	c0-0.3,0.1-0.7,0.1-1l1,0.1C65.8,36.8,65.8,37.2,65.8,37.5z"/>
<path class="st1" d="M38.4,63.7c0-1.4-1.2-2.6-2.6-2.6c-1.4,0-2.6,1.2-2.6,2.6c0,1.4,1.2,2.6,2.6,2.6C37.2,66.3,38.4,65.1,38.4,63.7
	z"/>
<path class="st2" d="M37.1,1.9c-1.2-0.7-2.8-0.3-3.6,1c-0.7,1.2-0.3,2.8,1,3.6c1.2,0.7,2.8,0.3,3.6-1C38.7,4.2,38.3,2.6,37.1,1.9z"
	/>
<path class="st2" d="M10.8,50.8c1.2-0.7,1.7-2.3,1-3.6c-0.7-1.2-2.3-1.7-3.6-1c-1.2,0.7-1.7,2.3-1,3.6C8,51.1,9.6,51.5,10.8,50.8z"
	/>
<path class="st3" d="M12.5,53.6c2.8-1.6,3.7-5.2,2.1-7.9c-1.6-2.8-5.2-3.7-7.9-2.1c-2.8,1.6-3.7,5.2-2.1,7.9
	C6.1,54.2,9.7,55.2,12.5,53.6z"/>
<path class="st1" d="M63.6,18.3c0-1.4-1.2-2.6-2.6-2.6s-2.6,1.2-2.6,2.6c0,1.4,1.2,2.6,2.6,2.6S63.6,19.7,63.6,18.3z"/>
<path class="st1" d="M8.4,21.7c1.2,0.7,2.8,0.3,3.6-1c0.7-1.2,0.3-2.8-1-3.6c-1.2-0.7-2.8-0.3-3.6,1S7.2,21,8.4,21.7z"/>
<path class="st4" d="M62.6,51.5c1.2-0.7,1.7-2.3,1-3.6s-2.3-1.7-3.6-1c-1.2,0.7-1.7,2.3-1,3.6C59.8,51.7,61.4,52.2,62.6,51.5z"/>
<circle class="st5" cx="35.9" cy="33.3" r="17.7"/>
<path class="st4" d="M35.9,22.7c1.5,0,2.6,1.2,2.6,2.6S37.3,28,35.9,28s-2.6-1.2-2.6-2.6S34.4,22.7,35.9,22.7z M37.8,28.6h-0.5
	c-0.9,0.4-2,0.4-3,0h-0.5c-1.1,0-2,0.9-2,2v5.6c0,0.5,0.4,1,1,1h0.7v5.6c0,0.5,0.4,1,1,1h2.6c0.5,0,1-0.4,1-1v-5.6h0.7
	c0.5,0,1-0.4,1-1v-5.6C39.8,29.5,38.9,28.6,37.8,28.6z"/>
</svg>
